%
(Header)
(Generated by gcodetools from Inkscape.)
(Using default header. To add your own header create file "header" in the output dir.)
M3
(Header end.)
G21 (All units in mm)

(Start cutting path id: path17829)
(Change tool to Default tool)

G00 Z3.000000
G00 X-90.507713 Y31.594200

G01 Z-1.000000 F100.0(Penetrate)
G01 X-106.369313 Y16.101200 Z-1.000000 F400.000000
G01 X-126.766313 Y7.878020 Z-1.000000
G01 X-149.871313 Y11.416300 Z-1.000000
G01 X-167.922313 Y25.268900 Z-1.000000
G01 X-176.842313 Y45.933100 Z-1.000000
G01 X-176.602313 Y57.724900 Z-1.000000
G01 X-172.551313 Y69.906200 Z-1.000000
G01 X-147.954313 Y101.081000 Z-1.000000
G01 X-114.824313 Y133.485000 Z-1.000000
G01 X-90.521713 Y157.592000 Z-1.000000
G01 X-70.436813 Y138.262000 Z-1.000000
G01 X-29.431013 Y98.720500 Z-1.000000
G01 X-12.858313 Y75.334600 Z-1.000000
G01 X-5.573333 Y49.416400 Z-1.000000
G01 X-8.542883 Y32.180200 Z-1.000000
G01 X-17.691613 Y19.067500 Z-1.000000
G01 X-31.336813 Y10.776000 Z-1.000000
G01 X-47.796113 Y8.003710 Z-1.000000
G01 X-61.279413 Y9.971080 Z-1.000000
G01 X-71.849313 Y15.006500 Z-1.000000
G01 X-90.507713 Y31.594200 Z-1.000000
G01 X-90.507713 Y31.594200 Z-1.000000
G00 Z3.000000

(End cutting path id: path17829)


(Footer)
M5
G00 X0.0000 Y0.0000
M2
(Using default footer. To add your own footer create file "footer" in the output dir.)
(end)
%